SF_Symbols/figure.table.tennis.svg

<?xml version="1.0" encoding="UTF-8"?>
<svg xmlns="http://www.w3.org/2000/svg" xmlns:xlink="http://www.w3.org/1999/xlink" width="24" height="24" viewBox="0 0 24 24" version="1.1">
<g id="surface1">
<path style=" stroke:none;fill-rule:nonzero;fill:rgb(100%,100%,100%);fill-opacity:1;" d="M 13.324219 5.613281 C 13.738281 5.613281 14.117188 5.515625 14.457031 5.3125 C 14.804688 5.105469 15.078125 4.828125 15.28125 4.480469 C 15.488281 4.132812 15.59375 3.75 15.59375 3.332031 C 15.59375 2.917969 15.488281 2.539062 15.28125 2.199219 C 15.078125 1.851562 14.804688 1.578125 14.457031 1.375 C 14.117188 1.167969 13.738281 1.0625 13.324219 1.0625 C 12.90625 1.0625 12.523438 1.167969 12.175781 1.375 C 11.835938 1.578125 11.5625 1.851562 11.355469 2.199219 C 11.144531 2.539062 11.042969 2.917969 11.042969 3.332031 C 11.042969 3.75 11.144531 4.132812 11.355469 4.480469 C 11.5625 4.828125 11.835938 5.105469 12.175781 5.3125 C 12.523438 5.515625 12.90625 5.613281 13.324219 5.613281 Z M 16.25 23.667969 C 16.472656 23.578125 16.652344 23.421875 16.792969 23.199219 C 16.929688 22.976562 16.953125 22.707031 16.863281 22.394531 L 15.292969 16.90625 C 15.207031 16.636719 15.046875 16.429688 14.8125 16.292969 L 11.53125 14.363281 L 13.09375 9.730469 C 13.148438 9.546875 13.253906 9.449219 13.40625 9.425781 C 13.566406 9.40625 13.710938 9.460938 13.84375 9.59375 L 16.167969 11.90625 C 16.390625 12.113281 16.632812 12.21875 16.894531 12.21875 C 17.1875 12.21875 17.4375 12.113281 17.644531 11.90625 L 20.78125 8.761719 C 20.984375 8.550781 21.082031 8.308594 21.082031 8.03125 C 21.089844 7.746094 20.988281 7.5 20.78125 7.292969 C 20.578125 7.089844 20.332031 6.988281 20.042969 6.988281 C 19.757812 6.984375 19.511719 7.082031 19.300781 7.292969 L 16.894531 9.699219 L 14.886719 7.613281 C 14.421875 7.136719 13.902344 6.824219 13.332031 6.675781 C 12.769531 6.53125 12.007812 6.457031 11.042969 6.457031 L 1.199219 6.457031 C 0.914062 6.457031 0.667969 6.5625 0.457031 6.769531 C 0.25 6.972656 0.144531 7.21875 0.144531 7.511719 C 0.144531 7.796875 0.25 8.042969 0.457031 8.25 C 0.667969 8.453125 0.914062 8.550781 1.199219 8.550781 L 8.511719 8.550781 C 8.664062 8.550781 8.792969 8.609375 8.894531 8.730469 C 9.007812 8.847656 9.023438 9.011719 8.949219 9.21875 L 7.730469 12.875 C 7.582031 13.304688 7.546875 13.734375 7.625 14.167969 C 7.707031 14.589844 7.878906 14.972656 8.136719 15.3125 C 8.398438 15.652344 8.738281 15.914062 9.15625 16.09375 L 13.394531 17.957031 L 14.855469 22.9375 C 14.957031 23.304688 15.148438 23.542969 15.425781 23.644531 C 15.710938 23.75 15.984375 23.757812 16.25 23.667969 Z M 2.957031 23.300781 C 3.097656 23.503906 3.289062 23.640625 3.53125 23.71875 C 3.78125 23.796875 4.050781 23.753906 4.34375 23.59375 L 9.019531 21 C 9.257812 20.867188 9.421875 20.667969 9.511719 20.394531 L 10.40625 17.738281 L 8.761719 17.019531 C 8.664062 16.972656 8.566406 16.921875 8.46875 16.875 C 8.378906 16.828125 8.285156 16.769531 8.1875 16.707031 L 7.613281 19.375 L 3.332031 21.769531 C 3 21.957031 2.8125 22.203125 2.769531 22.511719 C 2.734375 22.816406 2.796875 23.078125 2.957031 23.300781 Z M 17.417969 14.5625 L 23.84375 14.5625 L 23.84375 13.40625 L 17.417969 13.40625 C 17.257812 13.40625 17.121094 13.460938 17.011719 13.574219 C 16.898438 13.683594 16.84375 13.820312 16.84375 13.980469 C 16.84375 14.144531 16.898438 14.285156 17.011719 14.394531 C 17.121094 14.507812 17.257812 14.5625 17.417969 14.5625 Z M 1.582031 6.863281 L 2.636719 6.863281 L 2.636719 5.394531 L 1.582031 5.394531 Z M 2.113281 1.425781 C 1.566406 1.425781 1.101562 1.617188 0.71875 2 C 0.335938 2.382812 0.144531 2.851562 0.144531 3.40625 C 0.144531 3.738281 0.234375 4.078125 0.40625 4.425781 C 0.585938 4.765625 0.824219 5.070312 1.113281 5.332031 C 1.414062 5.597656 1.746094 5.769531 2.113281 5.855469 C 2.476562 5.769531 2.804688 5.597656 3.105469 5.332031 C 3.402344 5.070312 3.640625 4.765625 3.8125 4.425781 C 3.984375 4.078125 4.074219 3.738281 4.074219 3.40625 C 4.074219 2.851562 3.882812 2.382812 3.5 2 C 3.117188 1.617188 2.65625 1.425781 2.113281 1.425781 Z M 2.113281 1.425781 "/>
</g>
</svg>

<svg xmlns="http://www.w3.org/2000/svg" width="24" height="24"><path style="stroke:none;fill-rule:nonzero;fill:#fff;fill-opacity:1" d="M13.324 5.613c.414 0 .793-.097 1.133-.3.348-.208.621-.485.824-.833.207-.347.313-.73.313-1.148a2.144 2.144 0 0 0-.313-1.133c-.199-.344-.48-.625-.824-.824a2.144 2.144 0 0 0-1.133-.313c-.418 0-.8.106-1.148.313-.34.203-.614.477-.82.824-.211.34-.313.719-.313 1.133 0 .418.102.8.312 1.148.207.348.48.625.82.832.348.204.731.301 1.15.301Zm2.926 18.055c.227-.094.418-.258.543-.469.137-.222.16-.492.07-.804l-1.57-5.489a1.045 1.045 0 0 0-.48-.613l-3.282-1.93 1.563-4.633c.054-.183.16-.28.312-.304a.503.503 0 0 1 .438.168l2.324 2.312c.223.207.465.313.727.313.293 0 .543-.106.75-.313l3.136-3.144c.203-.211.301-.453.301-.73a.959.959 0 0 0-.3-.739c-.192-.2-.462-.309-.739-.305a.979.979 0 0 0-.742.305l-2.406 2.406-2.008-2.086c-.465-.476-.985-.789-1.555-.937-.562-.145-1.324-.219-2.289-.219H1.199c-.285 0-.531.106-.742.313a1 1 0 0 0-.312.742c0 .285.105.531.312.738.211.203.457.3.742.3h7.313c.152 0 .281.06.383.18.113.118.128.282.054.489L7.73 12.875c-.148.43-.183.86-.105 1.293.082.422.254.805.512 1.145.261.34.601.601 1.02.78l4.238 1.864 1.46 4.98c.102.368.293.606.57.708.262.105.555.113.825.023Zm-13.293-.367c.14.203.332.34.574.418.25.078.52.035.813-.125L9.02 21c.238-.133.402-.332.492-.605l.894-2.657-1.644-.718c-.098-.047-.196-.098-.293-.145a3.34 3.34 0 0 1-.281-.168l-.575 2.668-4.281 2.395c-.332.187-.52.433-.562.742-.036.304.027.566.187.789Zm14.461-8.738h6.426v-1.157h-6.426a.548.548 0 0 0-.406.168.548.548 0 0 0-.168.406c0 .165.054.305.168.415.11.113.246.168.406.168Zm-15.836-7.7h1.055V5.395H1.582Zm.531-5.437c-.547 0-1.011.191-1.394.574a1.907 1.907 0 0 0-.574 1.406c0 .332.09.672.261 1.02.18.34.418.644.707.906.301.266.633.438 1 .523.364-.085.692-.257.992-.523.297-.262.536-.566.708-.906.171-.348.261-.688.261-1.02 0-.554-.191-1.023-.574-1.406a1.887 1.887 0 0 0-1.387-.574Zm0 0"/></svg>
